src/interface/resources/filezilla.svg

<svg xmlns="http://www.w3.org/2000/svg" width="379.955" height="380.251" viewBox="0 0 379.955 380.251" overflow="visible">
  <g transform="matrix(2.17444 0 0 2.17437 -218.687 -223.172)">
    <linearGradient id="a" x1="187.947" x2="187.947" y1="123.859" y2="258.865" gradientUnits="userSpaceOnUse">
      <stop offset="0" stop-color="#BF0000"/>
      <stop offset="1" stop-color="#8F0000"/>
    </linearGradient>
    <path fill="url(#a)" d="M100.572 108.605v7.715c3.226 0 5.85 2.625 5.85 5.85 0 3.227-2.624 5.852-5.85 5.852v7.715c3.226 0 5.85 2.625 5.85 5.85 0 3.227-2.624 5.852-5.85 5.852v7.71c3.226 0 5.85 2.62 5.85 5.85 0 3.23-2.624 5.85-5.85 5.85v7.71c3.226 0 5.85 2.62 5.85 5.85 0 3.224-2.624 5.85-5.85 5.85v7.712c3.226 0 5.85 2.623 5.85 5.85 0 3.227-2.624 5.852-5.85 5.852v7.712c3.226 0 5.85 2.62 5.85 5.85 0 3.225-2.624 5.85-5.85 5.85v7.715c3.226 0 5.85 2.624 5.85 5.85 0 3.228-2.624 5.853-5.85 5.853v7.713c3.226 0 5.85 2.623 5.85 5.85 0 3.227-2.624 5.85-5.85 5.85v7.72c1.54 0 3.048.624 4.138 1.714 1.088 1.086 1.713 2.594 1.713 4.135h7.715c0-3.228 2.625-5.85 5.85-5.85 3.227 0 5.852 2.622 5.852 5.85h7.715c0-3.228 2.625-5.85 5.85-5.85 3.227 0 5.852 2.622 5.852 5.85h7.715c0-3.228 2.625-5.85 5.85-5.85 3.227 0 5.852 2.622 5.852 5.85h7.715c0-3.228 2.62-5.85 5.85-5.85 3.22 0 5.85 2.622 5.85 5.85h7.71c0-3.228 2.62-5.85 5.85-5.85 3.22 0 5.85 2.622 5.85 5.85h7.71c0-3.228 2.62-5.85 5.85-5.85 3.22 0 5.85 2.622 5.85 5.85h7.71c0-3.228 2.623-5.85 5.85-5.85 3.225 0 5.85 2.622 5.85 5.85h7.715c0-3.228 2.626-5.85 5.85-5.85 3.23 0 5.853 2.622 5.853 5.85h7.72c0-1.54.625-3.05 1.715-4.138 1.09-1.09 2.594-1.714 4.135-1.714v-7.716c-3.224 0-5.85-2.626-5.85-5.85 0-3.23 2.627-5.85 5.854-5.85V244.5c-3.23 0-5.854-2.628-5.854-5.855s2.63-5.85 5.856-5.85v-7.71c-3.228 0-5.853-2.626-5.853-5.853 0-3.225 2.628-5.85 5.855-5.85v-7.71c-3.226 0-5.85-2.624-5.85-5.85 0-3.228 2.625-5.85 5.852-5.85v-7.716c-3.23 0-5.855-2.623-5.855-5.85 0-3.223 2.627-5.85 5.854-5.85v-7.71c-3.23 0-5.854-2.626-5.854-5.855 0-3.23 2.626-5.85 5.853-5.85v-7.713c-3.23 0-5.854-2.626-5.854-5.853 0-3.224 2.627-5.85 5.854-5.85v-7.714c-3.23 0-5.855-2.625-5.855-5.85 0-3.228 2.626-5.85 5.853-5.85v-7.72c-1.54 0-3.05-.627-4.14-1.715-1.09-1.09-1.714-2.6-1.714-4.14h-7.71c0 3.227-2.625 5.852-5.85 5.852-3.227 0-5.85-2.626-5.85-5.853h-7.716c0 3.226-2.624 5.85-5.85 5.85-3.226 0-5.85-2.625-5.85-5.852h-7.715c0 3.228-2.63 5.853-5.856 5.853s-5.85-2.626-5.85-5.853h-7.71c0 3.226-2.622 5.85-5.85 5.85-3.224 0-5.85-2.625-5.85-5.852h-7.71c0 3.23-2.625 5.853-5.85 5.853-3.23 0-5.852-2.624-5.852-5.85h-7.714c0 3.23-2.625 5.854-5.85 5.854-3.227 0-5.852-2.626-5.852-5.853h-7.713c0 3.228-2.627 5.85-5.85 5.85-3.23 0-5.85-2.623-5.85-5.85h-7.72c0 3.227-2.624 5.85-5.85 5.85-3.226 0-5.85-2.624-5.85-5.85h-7.72c0 1.54-.624 3.05-1.71 4.14-1.09 1.086-2.6 1.71-4.14 1.71z"/>
    <path fill="#fff" d="M249.444 172.68H162.24l4.55-21.292h53.15l4.876-22.918h-76.394l-24.056 113.454h23.08l10.564-49.576h55.36l-48.104 47.625 8.452 14.953c3.9-2.6 10.24-2.926 14.628-2.926 7.803 0 15.442 2.602 23.404 2.602 7.3 0 14.775-.488 26.967-6.34l4.26-19.992c-8.29 3.412-20.558 6.664-31.227 6.664-4.386 0-8.45-.975-12.676-1.625l46.63-45.35 3.74-15.28z"/>
  </g>
</svg>

<?xml version="1.0" encoding="UTF-8" standalone="no"?>
<!-- Generator: Adobe Illustrator 12.0.1, SVG Export Plug-In . SVG Version: 6.00 Build 51448)  -->
<svg
   xmlns:dc="http://purl.org/dc/elements/1.1/"
   xmlns:cc="http://web.resource.org/cc/"
   xmlns:rdf="http://www.w3.org/1999/02/22-rdf-syntax-ns#"
   xmlns:svg="http://www.w3.org/2000/svg"
   xmlns="http://www.w3.org/2000/svg"
   xmlns:sodipodi="http://sodipodi.sourceforge.net/DTD/sodipodi-0.dtd"
   xmlns:inkscape="http://www.inkscape.org/namespaces/inkscape"
   version="1.1"
   id="Layer_1"
   width="379.955"
   height="380.251"
   viewBox="0 0 379.955 380.251"
   overflow="visible"
   enable-background="new 0 0 379.955 380.251"
   xml:space="preserve"
   sodipodi:version="0.32"
   inkscape:version="0.45.1"
   sodipodi:docname="fz3.svg"
   inkscape:output_extension="org.inkscape.output.svg.inkscape"
   sodipodi:docbase="C:\dev\test"><metadata
   id="metadata2383"><rdf:RDF><cc:Work
       rdf:about=""><dc:format>image/svg+xml</dc:format><dc:type
         rdf:resource="http://purl.org/dc/dcmitype/StillImage" /></cc:Work></rdf:RDF></metadata><defs
   id="defs2381">
	
	
</defs><sodipodi:namedview
   inkscape:window-height="719"
   inkscape:window-width="1280"
   inkscape:pageshadow="2"
   inkscape:pageopacity="0.0"
   guidetolerance="10.0"
   gridtolerance="10.0"
   objecttolerance="10.0"
   borderopacity="1.0"
   bordercolor="#666666"
   pagecolor="#ffffff"
   id="base"
   inkscape:zoom="2.8339983"
   inkscape:cx="190.33456"
   inkscape:cy="331.44169"
   inkscape:window-x="110"
   inkscape:window-y="110"
   inkscape:current-layer="Layer_1" />
<g
   id="g2305"
   transform="matrix(2.1744356,0,0,2.1743734,-218.68734,-223.17239)">
		<linearGradient
   y2="258.86539"
   x2="187.94679"
   y1="123.8594"
   x1="187.94679"
   gradientUnits="userSpaceOnUse"
   id="XMLID_2_">
			<stop
   id="stop2308"
   style="stop-color:#BF0000"
   offset="0" />
			<stop
   id="stop2310"
   style="stop-color:#8F0000"
   offset="1" />
		</linearGradient>
		<path
   style="fill:url(#XMLID_2_)"
   id="path2312"
   d="M 100.572,108.605 L 100.572,116.32 C 103.798,116.32 106.423,118.945 106.423,122.17 C 106.423,125.397 103.798,128.022 100.572,128.022 L 100.572,135.737 C 103.798,135.737 106.423,138.362 106.423,141.587 C 106.423,144.814 103.798,147.439 100.572,147.439 L 100.572,155.154 C 103.798,155.154 106.423,157.779 106.423,161.008 C 106.423,164.237 103.798,166.862 100.572,166.862 L 100.572,174.577 C 103.798,174.577 106.423,177.2 106.423,180.427 C 106.423,183.654 103.798,186.279 100.572,186.279 L 100.572,193.994 C 103.798,193.994 106.423,196.617 106.423,199.844 C 106.423,203.071 103.798,205.696 100.572,205.696 L 100.572,213.411 C 103.798,213.411 106.423,216.034 106.423,219.261 C 106.423,222.488 103.798,225.113 100.572,225.113 L 100.572,232.828 C 103.798,232.828 106.423,235.451 106.423,238.678 C 106.423,241.905 103.798,244.53 100.572,244.53 L 100.572,252.245 C 103.798,252.245 106.423,254.868 106.423,258.095 C 106.423,261.322 103.798,263.947 100.572,263.947 L 100.572,271.666 C 102.112,271.666 103.62,272.289 104.71,273.379 C 105.798,274.467 106.423,275.975 106.423,277.516 L 114.138,277.516 C 114.138,274.289 116.763,271.666 119.989,271.666 C 123.215,271.666 125.84,274.289 125.84,277.516 L 133.555,277.516 C 133.555,274.289 136.18,271.666 139.406,271.666 C 142.632,271.666 145.257,274.289 145.257,277.516 L 152.972,277.516 C 152.972,274.289 155.597,271.666 158.823,271.666 C 162.049,271.666 164.674,274.289 164.674,277.516 L 172.389,277.516 C 172.389,274.289 175.014,271.666 178.24,271.666 C 181.466,271.666 184.091,274.289 184.091,277.516 L 191.806,277.516 C 191.806,274.289 194.431,271.666 197.657,271.666 C 200.883,271.666 203.508,274.289 203.508,277.516 L 211.223,277.516 C 211.223,274.289 213.848,271.666 217.074,271.666 C 220.3,271.666 222.925,274.289 222.925,277.516 L 230.64,277.516 C 230.64,274.289 233.265,271.666 236.491,271.666 C 239.717,271.666 242.342,274.289 242.342,277.516 L 250.057,277.516 C 250.057,274.289 252.682,271.666 255.908,271.666 C 259.134,271.666 261.759,274.289 261.759,277.516 L 269.478,277.516 C 269.478,275.975 270.103,274.467 271.193,273.379 C 272.281,272.289 273.789,271.666 275.33,271.666 L 275.33,263.951 C 272.103,263.951 269.478,261.326 269.478,258.099 C 269.478,254.872 272.103,252.249 275.33,252.249 L 275.33,244.534 C 272.103,244.534 269.478,241.909 269.478,238.682 C 269.478,235.455 272.103,232.832 275.33,232.832 L 275.33,225.117 C 272.103,225.117 269.478,222.492 269.478,219.265 C 269.478,216.038 272.103,213.415 275.33,213.415 L 275.33,205.7 C 272.103,205.7 269.478,203.075 269.478,199.848 C 269.478,196.621 272.103,193.998 275.33,193.998 L 275.33,186.283 C 272.103,186.283 269.478,183.658 269.478,180.431 C 269.478,177.204 272.103,174.581 275.33,174.581 L 275.33,166.866 C 272.103,166.866 269.478,164.241 269.478,161.012 C 269.478,157.783 272.103,155.158 275.33,155.158 L 275.33,147.443 C 272.103,147.443 269.478,144.818 269.478,141.591 C 269.478,138.366 272.103,135.741 275.33,135.741 L 275.33,128.026 C 272.103,128.026 269.478,125.401 269.478,122.174 C 269.478,118.949 272.103,116.324 275.33,116.324 L 275.33,108.605 C 273.789,108.605 272.281,107.98 271.193,106.892 C 270.103,105.802 269.478,104.294 269.478,102.753 L 261.763,102.753 C 261.763,105.98 259.138,108.605 255.912,108.605 C 252.686,108.605 250.061,105.98 250.061,102.753 L 242.346,102.753 C 242.346,105.98 239.721,108.605 236.495,108.605 C 233.269,108.605 230.644,105.98 230.644,102.753 L 222.929,102.753 C 222.929,105.98 220.304,108.605 217.078,108.605 C 213.852,108.605 211.227,105.98 211.227,102.753 L 203.512,102.753 C 203.512,105.98 200.887,108.605 197.661,108.605 C 194.435,108.605 191.81,105.98 191.81,102.753 L 184.095,102.753 C 184.095,105.98 181.47,108.605 178.244,108.605 C 175.018,108.605 172.393,105.98 172.393,102.753 L 164.678,102.753 C 164.678,105.98 162.053,108.605 158.827,108.605 C 155.601,108.605 152.976,105.98 152.976,102.753 L 145.261,102.753 C 145.261,105.98 142.636,108.605 139.41,108.605 C 136.184,108.605 133.559,105.98 133.559,102.753 L 125.844,102.753 C 125.844,105.98 123.219,108.605 119.993,108.605 C 116.767,108.605 114.142,105.98 114.142,102.753 L 106.423,102.753 C 106.423,104.294 105.798,105.802 104.71,106.892 C 103.62,107.98 102.112,108.605 100.572,108.605 z " />
		<path
   style="fill:#ffffff"
   id="path2314"
   d="M 249.444,172.681 L 162.239,172.681 L 166.79,151.388 L 219.94,151.388 L 224.816,128.47 L 148.422,128.47 L 124.366,241.924 L 147.447,241.924 L 158.01,192.348 L 213.371,192.348 L 165.266,239.973 L 173.718,254.926 C 177.618,252.326 183.957,252 188.346,252 C 196.149,252 203.788,254.602 211.75,254.602 C 219.051,254.602 226.525,254.114 238.717,248.262 L 242.977,228.27 C 234.686,231.682 222.419,234.934 211.75,234.934 C 207.364,234.934 203.3,233.959 199.074,233.309 L 245.705,187.961 L 249.444,172.681 z " />
	</g>
</svg>
